X:186
T:Stuck In The Snow Jig
R:Jig
C:Bruce Osborne Feb.(2006)
Z:abc by bosborne@kos.net
M:6/8
L:1/8
K:Emaj
B|EFE EGB|e2 f gfe|bge bge|gbg f2 B|
EFE EGB|e2 f gfe|cec BGF|GEE E2:|
|:B|eBe fef|gfe ecB|bge bge|gbg f2 B|
eBe fef|gfe ecB|cec BGF|GEE E2:|
